packages/heroicons/src/prism/clipboard-checked.svg

<!-- Generated by IcoMoon.io -->
<svg version="1.1" xmlns="http://www.w3.org/2000/svg" width="16" height="16" viewBox="0 0 16 16">
<title>clipboard-checked</title>
<path fill="#4a4a4a" d="M4 4h8v-2h-2c0-1.105-0.895-2-2-2s-2 0.895-2 2h-2v2zM8 1c0.552 0 1 0.448 1 1s-0.448 1-1 1c-0.552 0-1-0.448-1-1s0.448-1 1-1z"></path>
<path fill="#4a4a4a" d="M14.5 2h-1.5v2.5c0 0.276-0.224 0.5-0.5 0.5h-9c-0.276 0-0.5-0.224-0.5-0.5v-2.5h-1.5c-0.276 0-0.5 0.224-0.5 0.5v13c0 0.276 0.224 0.5 0.5 0.5h13c0.276 0 0.5-0.224 0.5-0.5v-13c0-0.276-0.224-0.5-0.5-0.5zM7 14.414l-3.207-3.707 0.914-0.914 2.293 1.793 4.293-3.793 0.914 0.914-5.207 5.707z"></path>
</svg>

<svg xmlns="http://www.w3.org/2000/svg" aria-hidden="true" fill="currentColor" viewBox="0 0 16 16">
  <path d="M4 4h8V2h-2a2 2 0 10-4 0H4v2zm4-3a1 1 0 110 2 1 1 0 010-2z"/>
  <path d="M14.5 2H13v2.5a.5.5 0 01-.5.5h-9a.5.5 0 01-.5-.5V2H1.5a.5.5 0 00-.5.5v13a.5.5 0 00.5.5h13a.5.5 0 00.5-.5v-13a.5.5 0 00-.5-.5zM7 14.414l-3.207-3.707.914-.914L7 11.586l4.293-3.793.914.914L7 14.414z"/>
</svg>
